X: 20392
T: ETTRICK BANKS
Q: "Andante"
%R: march
B: "Edinburgh Repository of Music" v.2 p.39 #2
F: http://digital.nls.uk/special-collections-of-printed-music/pageturner.cfm?id=87776133
Z: 2015 John Chambers <jc:trillian.mit.edu>
M: C
L: 1/8
K: G
B>A |\
G3F E2Bd | (dc) (Bd) e3g | d2(cB) g2B2 | {c}B2(AG) A2B>A |\
G3F E2(gf) | TedBd e3f | (g>a)gf (e>f)ge | d2(B>c) B2 :|
|: d2 |\
g3a g2G2 | (B>c)(d>e) d2(cB) | g3a g2(fe) | (f>g)(a>b) a2(g>a) |\
b2(a>g) g2G2 | B2d2 b3a | (g>a)gf (e>f)ge | d2B>c B2 :|

%%sep 2 1 500
%%sep 1 1 500

